X:1
T:Title
%%score { ( 1 3 ) | ( 2 4 ) }
L:1/8
M:4/4
K:Ab
V:1 treble nm="Grand Piano"
V:3 treble 
V:2 bass 
V:4 bass 
V:1
 z4 z2[Q:1/4=100] [CE]>[CE] | [CA]>[CA] [CA]>[CA] [DB]>[DA] [EG]>[DF] | [CE]6 z2 | B6 z2 | A6 z2 | %5
 [CA]>[CA] [CA]>[CA] [DB]>[DA] [EG]>[DF] | z2 A,>A, A,2 c>c | B6 z2 |[M:3/4] E6 |[M:1/4] E2 | %10
[M:4/4] c2- [Ec]2 [DB]2 [CA]2 | [Fd]4 [Ec]4 | [DB]2 [DA]2 [G,EG]2 [A,DF]2 | [A,CE]6 c2 | %14
 e2 e2 d2 c2 | [FB]4 F4 | E2 c2 c2 B2 |[M:3/4] [CA]6 |] %18
V:2
 z4 z2 [A,,A,]>[A,,A,] | [A,,E,]>[A,,E,] [A,,E,]>[A,,E,] [D,F,]>[D,F,] [D,G,]>[D,A,] | %2
 [A,,A,]2 A,,>A,, A,,2 z2 | z2 [E,G,]>[E,G,] [E,G,]2 z2 | z2 [A,,A,]2 [A,,A,]2 [A,,A,]>[A,,A,] | %5
 [A,,E,]>[A,,E,] [A,,E,]>[A,,E,] [D,F,]>[D,F,] [D,G,]>[D,A,] | [A,,A,]2 A,,>A,, A,,2 z2 | %7
 z2 [B,,G,]>[B,,G,] [B,,F,]2 [B,,A,B,]2 |[M:3/4] [G,B,]2 A,2 B,2 |[M:1/4] [E,G,D]2 | %10
[M:4/4] [A,,A,]4 [A,,A,]2 [A,,A,]2 | [A,,A,]4 [A,,A,]4 | [D,F,]2 [D,F,]2 D,2 D,2 | %13
 A,,2 C,2 E,2[K:treble] [A,E]2 | [A,CA]2 [A,CA]2 [A,FA]2 [A,EA]2 | [D,D]4 [D,A,D]4 | %16
 [E,A,C]2 [E,A,E]2 [E,F,E]2 [E,G,D]2 |[M:3/4] [A,,A,]6 |] %18
V:3
 x8 | x8 | z2 A,>A, A,2 E>c | z2 D>D D2 c2 | z2 C2 C2 [CE]>[CE] | x8 | [CE]6 z2 | z2 E>E =D2 D2 | %8
[M:3/4] z2 C2 D2 |[M:1/4] x2 |[M:4/4] C2 z2 z4 | x8 | x8 | x8 | x8 | x8 | x8 |[M:3/4] x6 |] %18
V:4
 x8 | x8 | x8 | x8 | x8 | x8 | x8 | x8 |[M:3/4] E,6 |[M:1/4] x2 |[M:4/4] x8 | x8 | x8 | %13
 x6[K:treble] x2 | x8 | x8 | x8 |[M:3/4] x6 |] %18

